X: 1606
T: Joe Delaney, 5th Fig, 1st Set
B: australian traditional tunes wiki
M:6/8
L:1/8
R: Jig
Q: 3/8=100
K:F
V:1 
A2G|"F"F2FF2D|"C"C2C CEC|"F"F2F FAF|c3c2d/e/|f2f fzd|c2AF2G|FAF FED|"C7"C3-C2G|
"F"F2FF2D|"C"C2C CEC|"F"F2F FAF|c3c2d/e/|f2f fzd|c2AF2G|AcA "C"G2E|"F" F3z3|
"Bb"d2d d2c|d2ff2d|"F"c2d cA2|c3-c2A|"Bb:"d2dd2c|d2ff2d|"F"cdc AGF|"C7"G3A2G|
"F"F2FF2D|"C"C2C CEC|"F"F2F FAF|c3c2d/e/|f2f fzd|c2AF2G|"Dm"A2F "C"G2E|"F" F3z3|
% abcbook-tune_id 6342d53abacf287c79c99c47


% abcbook-boost 0
% abcbook-tablature 
% abcbook-transpose 
% abcbook-lastupdated 1665324373631
% abcbook-soundfonts 
% abcbook-repeats 1
% NFF Book 2020

